!! 00025] TT[TB
!! Eigene Aufnahme
!!!OTL: Banjin youmian tui wowo
!!!ARE: Asia, China, Hebei, Pingshan
!! Ethnic Group: Han
!! IV, 67
!!!SCT: C0379
!!!YEM: Copyright 1995, estate of Helmut Schaffrath.
**kern
*ICvox
*Ivox
!! Mixed meters:  2/4; 1/4
*M2/4
*k[f#c#g#]
*A:
{8bb
8bb
8bb
16ff#
16ff#
=1
4bb
4aa
=2
8aa
8aa
16bb
16aa
8ff#
=3
2ee}
=4
{8ee
16ee
16ff#
8bb
16bb
16aa
=5
4ff#
8.aa
16ff#
=6
8cc#
8ee
16ff#
16ee
8cc#
=7
2b}
==
!!!AGN: Shange. Biaoda aiqing
!! kein, !) Berglied, obwohl es dort so angegeben ist.
!!    Variante von Shanxi und Gansu. Saengerin: Huang Bai, am
!!    28.4.87, wieder erkaeltet).
!!    Wenig Verzierungen, Glissandi.
!!!ONB: ESAC (Essen Associative Code) Database: CHINA
!!!AMT: irregular
!!!AIN: vox
!!!EED: Helmut Schaffrath
!!!EEV: 1.0
*-
